X: 62
T: Motet cycle Quam pulchra es &mdash; 3. Salve virgo salutata
C: Gaspar van Weerbeke
%%abc-version 2.0
%%abcx-abcm2ps-target-version 5.9.1 (29 Sep 2008)
%%abc-creator hum2abc beta
%%abcx-conversion-date 2022/03/06 13:05:59
%%abc-copyright Copyright 2021, Pavanello, Agnese
%%abc-edited-by Sapp, Craig Stuart
%%abc-edited-by Wissmann, Rolf
%%humdrum-veritas 167160725
%%humdrum-veritas-data 2954507673
%%linebreak <none>
%%barnumbers 0
L: 1/4
M: C
N: Derived from Gas0302c-Quam_pulchra_es-Salve_virgo_salutata.krn
%%staves [1 2 3 4]
V: 1 clef=treble
V: 2 clef=treble-8
V: 3 clef=treble-8
V: 4 clef=bass
K: F
[V:1] G8 | 
[V:2] z8 | 
[V:3] z8 | 
[V:4] G,8 | 
[V:1] D4E4 | 
[V:2] z8 | 
[V:3] z8 | 
[V:4] F,4G,4 | 
[V:1] F8 | 
[V:2] z8 | 
[V:3] z8 | 
[V:4] A,8 | 
[V:1] G2B2>c2d2- | 
[V:2] z8 | 
[V:3] z8 | 
[V:4] G,8 | 
[V:1] dcBAG2c2- | 
[V:2] z8 | 
[V:3] z8 | 
[V:4] D,4E,4 | 
[V:1] cBAGA4 | 
[V:2] z8 | 
[V:3] z8 | 
[V:4] F,8 | 
[V:1] G8 | 
[V:2] z4d4- | 
[V:3] z4G4 | 
[V:4] G,8 | 
[V:1] z8 | 
[V:2] d4e4 | 
[V:3] B4c4 | 
[V:4] z8 | 
[V:1] z8 | 
[V:2] f4d2e2- | 
[V:3] d4B2c2- | 
[V:4] z8 | 
[V:1] z8 | 
[V:2] e2f2d2e2- | 
[V:3] c2d2B2c2- | 
[V:4] z8 | 
[V:1] z8 | 
[V:2] edg4^f2 | 
[V:3] c2G2A4 | 
[V:4] z8 | 
[V:1] z8 | 
[V:2] g4z4 | 
[V:3] G4z4 | 
[V:4] B,4A,4 | 
[V:1] z8 | 
[V:2] z8 | 
[V:3] B4A4 | 
[V:4] G,4C4 | 
[V:1] z8 | 
[V:2] z8 | 
[V:3] G4c4 | 
[V:4] B,4A,4 | 
[V:1] z8 | 
[V:2] z8 | 
[V:3] B2c2A2B2 | 
[V:4] G,2A,2F,2G,2 | 
[V:1] z8 | 
[V:2] z8 | 
[V:3] c2d2>e2f2- | 
[V:4] A,2F,2G,2A,2- | 
[V:1] z8 | 
[V:2] z8 | 
[V:3] fed4^c2 | 
[V:4] A,2F,2E,4 | 
[V:1] z4z2d2 | 
[V:2] f4f2a2- | 
[V:3] d4z2f2 | 
[V:4] D,4z2D,2 | 
[V:1] d2>c2B2A2 | 
[V:2] a2a2g2f2 | 
[V:3] f2>e2d2c2 | 
[V:4] D,4G,2A,2 | 
[V:1] A2B2>A2G2- | 
[V:2] f2g2d2_e2 | 
[V:3] c2d4B2 | 
[V:4] A,2G,2F,2G,2 | 
[V:1] G2^F2G4 | 
[V:2] d4B2B2 | 
[V:3] A4G2G2 | 
[V:4] D,4_E,2E,2 | 
[V:1] z2G2c3d | 
[V:2] c2>B2G2g2 | 
[V:3] c2>d2e3f | 
[V:4] C,6C,2 | 
[V:1] e2e2d2f2- | 
[V:2] e2c2fgab | 
[V:3] g2g2f2d2 | 
[V:4] C4D2B,2 | 
[V:1] fed4^c2 | 
[V:2] c'2g2a4 | 
[V:3] c2d2e4 | 
[V:4] A,2B,2A,4 | 
[V:1] d4z2d2 | 
[V:2] f4z2a2 | 
[V:3] d4z2f2 | 
[V:4] z2D,2D,2D,2 | 
[V:1] d2>c2B2A2 | 
[V:2] a2a2g2f2 | 
[V:3] f2>e2d2c2 | 
[V:4] D,2F,2G,2A,2- | 
[V:1] A2B4A2- | 
[V:2] f2g4e2 | 
[V:3] c2d4c2- | 
[V:4] A,2G,4A,2 | 
[V:1] A2G2F4 | 
[V:2] f2d2d4 | 
[V:3] c2B2A4 | 
[V:4] F,2G,2D,4 | 
[V:1] z2d2d3c | 
[V:2] d2d2d4 | 
[V:3] z2f2f3e | 
[V:4] D,2D,2D,4 | 
[V:1] B2A2A2B2- | 
[V:2] d2f4g2 | 
[V:3] d2c2c2d2- | 
[V:4] G,2A,4G,2 | 
[V:1] B2G4^F2 | 
[V:2] d2_e2d4 | 
[V:3] d2B2A4 | 
[V:4] F,2G,2D,4 | 
[V:1] G4z4 | 
[V:2] z8 | 
[V:3] G4z2G2 | 
[V:4] z2B,4B,2 | 
[V:1] z8 | 
[V:2] z8 | 
[V:3] c2>d2e2e2 | 
[V:4] A,2>A,2A,2G,2 | 
[V:1] z8 | 
[V:2] z8 | 
[V:3] d2f2>e2d2- | 
[V:4] F,2A,4F,2 | 
[V:1] z8 | 
[V:2] z4f4- | 
[V:3] d2^c2d4 | 
[V:4] E,4D,4- | 
[V:1] z2d2d3c | 
[V:2] f2d2f3e | 
[V:3] z8 | 
[V:4] D,4z4 | 
[V:1] B2A2A2B2- | 
[V:2] d2c2c2d2- | 
[V:3] z8 | 
[V:4] z8 | 
[V:1] BAGFG4 | 
[V:2] dcBAB4 | 
[V:3] z8 | 
[V:4] z8 | 
[V:1] A4z2d2 | 
[V:2] A4f2f2 | 
[V:3] z8 | 
[V:4] D,4D,2D,2 | 
[V:1] d2>c2B2A2 | 
[V:2] f2g4f2 | 
[V:3] z2d2d3c | 
[V:4] D,2G,4D,2 | 
[V:1] B2c2d4- | 
[V:2] g2feg2G2 | 
[V:3] B2A2B3c | 
[V:4] G,2A,2G,4 | 
[V:1] d2c2B2AG | 
[V:2] B2c2d4 | 
[V:3] d2_e2d2cB | 
[V:4] z4G,4 | 
[V:1] F2>G2ABc2- | 
[V:2] d2>c2A2F2 | 
[V:3] A2>G2F3G | 
[V:4] D,2>E,2F,G,A,2 | 
[V:1] cBA2G2A2- | 
[V:2] f4e2f2- | 
[V:3] ABc2B2c2 | 
[V:4] F,4G,2F,2 | 
[V:1] A2G4^F2 | 
[V:2] f2d4d2 | 
[V:3] d2B2A4 | 
[V:4] D,2G,2D,4 | 
[V:1] G8 |]  
[V:2] d8 |]  
[V:3] G8 |]  
[V:4] G,8 |]  


